www/assets/icons/no_cell.svg

<svg width="24" height="24" viewBox="0 0 24 24" xmlns="http://www.w3.org/2000/svg" fill='currentColor'><path d="M9.54498 6L5.84498 2.3C6.13498 1.55 6.86498 1 7.71498 1L17.715 1.01C18.815 1.01 19.715 1.9 19.715 3V16.17L17.715 14.17V6H9.54498ZM20.495 22.61L19.585 21.7C19.295 22.45 18.565 23 17.715 23H7.71498C6.61498 23 5.71498 22.1 5.71498 21V7.83L2.10498 4.22L3.51498 2.81L21.895 21.19L20.495 22.61ZM15.885 18L7.71498 9.83V18H15.885Z"/></svg>

<svg xmlns="http://www.w3.org/2000/svg" width="24" height="24" viewBox="0 0 24 24" fill='currentColor'><path d="m9.545 6-3.7-3.7c.29-.75 1.02-1.3 1.87-1.3l10 .01c1.1 0 2 .89 2 1.99v13.17l-2-2V6zm10.95 16.61-.91-.91c-.29.75-1.02 1.3-1.87 1.3h-10c-1.1 0-2-.9-2-2V7.83l-3.61-3.61 1.41-1.41 18.38 18.38zM15.885 18l-8.17-8.17V18z"/></svg>
